assets/img/service/support_01.svg

<svg fill="none" height="37" viewBox="0 0 46 37" width="46" xmlns="http://www.w3.org/2000/svg"><path d="m16.25 18.5c-4.9922 0-9-4.0078-9-9 0-4.92188 4.0078-9 9-9 4.9219 0 9 4.07812 9 9 0 4.9922-4.0781 9-9 9zm6.2578 2.25c2.8125 0 5.3438 1.2656 7.0313 3.2344l-5.4141 5.414-.5625.5625-.0703.7735-.4922 4.289c-.0703.4922 0 1.0547.1406 1.4766h-19.2656c-1.89844 0-3.375-1.4766-3.375-3.375v-2.8828c0-5.2031 4.21875-9.4922 9.42188-9.4922h1.19532c1.5469.7734 3.3047 1.125 5.1328 1.125s3.5156-.3516 5.0625-1.125zm3.1641 10.2656 9.7031-9.7031 5.0625 5.0625-9.7031 9.7031-4.2891.4219c-.7031.1406-1.2656-.4922-1.1953-1.1953zm19.3359-11.6015c.6328.7031.6328 1.7578 0 2.3906l-2.9531 2.9531-5.0625-5.0625.2812-.2812 2.6719-2.6719c.6328-.6328 1.6875-.6328 2.3906 0z" fill="#b9ac88"/></svg>

<svg width="46" height="37" viewBox="0 0 46 37" fill="none" xmlns="http://www.w3.org/2000/svg">
<path d="M16.25 18.5C11.2578 18.5 7.25 14.4922 7.25 9.5C7.25 4.57812 11.2578 0.5 16.25 0.5C21.1719 0.5 25.25 4.57812 25.25 9.5C25.25 14.4922 21.1719 18.5 16.25 18.5ZM22.5078 20.75C25.3203 20.75 27.8516 22.0156 29.5391 23.9844L24.125 29.3984L23.5625 29.9609L23.4922 30.7344L23 35.0234C22.9297 35.5156 23 36.0781 23.1406 36.5H3.875C1.97656 36.5 0.5 35.0234 0.5 33.125V30.2422C0.5 25.0391 4.71875 20.75 9.92188 20.75H11.1172C12.6641 21.5234 14.4219 21.875 16.25 21.875C18.0781 21.875 19.7656 21.5234 21.3125 20.75H22.5078ZM25.6719 31.0156L35.375 21.3125L40.4375 26.375L30.7344 36.0781L26.4453 36.5C25.7422 36.6406 25.1797 36.0078 25.25 35.3047L25.6719 31.0156ZM45.0078 19.4141C45.6406 20.1172 45.6406 21.1719 45.0078 21.8047L42.0547 24.7578L36.9922 19.6953L37.2734 19.4141L39.9453 16.7422C40.5781 16.1094 41.6328 16.1094 42.3359 16.7422L45.0078 19.4141Z" fill="#B9AC88"/>
</svg>
